X: 83
T:Missa D'ung aultre amer / Credo
N: Derived from Jos0703c-Missa_Dung_aultre_amer-Credo.krn
C: Josquin des Prez
%%abc-version 2.0
%%abcx-abcm2ps-target-version 5.9.1 (29 Sep 2008)
%%abc-creator hum2abc beta
%%abcx-conversion-date 2019/02/12 16:15:42
%%abc-edited-by Jesse Rodin
%%abc-edited-by Jesse Rodin; Victoria Chang 2012/02/24
%%abcx-initial-encoding-date 2012/02/24/
%%humdrum-veritas 3086680185
%%humdrum-veritas-data 3091715023
%%linebreak <none>
%%barnumbers 0
L: 1/4
M: 2/1
Q: 1/2=120
%%staves [1 2 3 4]
V: 1 clef=treble
V: 2 clef=treble-8
V: 3 clef=treble-8
V: 4 clef=bass
K: F
[V:1] G4G2G2 | 
[V:2] G4B2B2 | 
[V:3] G6E2 | 
[V:4] G,,4G,,2G,,2 | 
[V:1] A2B2c4 | 
[V:2] A2D2E4 | 
[V:3] F4G4 | 
[V:4] D,2D,2C,4 | 
[V:1] d2d2d2d2 | 
[V:2] F2F2F2G2 | 
[V:3] B8 | 
[V:4] B,,8 | 
[V:1] c3BA2G2 | 
[V:2] A3GF2E2 | 
[V:3] c8 | 
[V:4] z8 | 
[V:1] F2F2F2F2 | 
[V:2] D4z4 | 
[V:3] d6c2 | 
[V:4] D,3D,D,2D,2 | 
[V:1] G2D2E2F2 | 
[V:2] z8 | 
[V:3] B4A4 | 
[V:4] G,,4z4 | 
[V:1] G2D4D2 | 
[V:2] z2B4G2 | 
[V:3] G6FE | 
[V:4] z8 | 
[V:1] D3CB,2A,2 | 
[V:2] F2F2G2^F2 | 
[V:3] D8 | 
[V:4] z8 | 
[V:1] G,2D4D2 | 
[V:2] G4z2F2 | 
[V:3] B4A4 | 
[V:4] G,,4D,4 | 
[V:1] D2D2D2D2 | 
[V:2] G4B4 | 
[V:3] B4G4 | 
[V:4] G,,2G,,2G,,2G,,2 | 
[V:1] D2D2A,4 | 
[V:2] A2d4d2 | 
[V:3] F2F4EF | 
[V:4] D,4D,4 | 
[V:1] B,4C4 | 
[V:2] d2d2_e4 | 
[V:3] G4C4- | 
[V:4] G,,4G,4- | 
[V:1] z2C2B,2G,2 | 
[V:2] _e4d4- | 
[V:3] C4G4 | 
[V:4] G,4G,,4 | 
[V:1] A,2G,2B,2C2 | 
[V:2] d4z4 | 
[V:3] F2G4FE | 
[V:4] z4G,4 | 
[V:1] D4_E4 | 
[V:2] z8 | 
[V:3] F2D2C4 | 
[V:4] A,2B,2C4 | 
[V:1] D8 | 
[V:2] z4d4 | 
[V:3] G8 | 
[V:4] B,6A,G, | 
[V:1] z8 | 
[V:2] d2d2d2d2 | 
[V:3] D4F4 | 
[V:4] F,4D,4 | 
[V:1] z8 | 
[V:2] c2c2c2c2 | 
[V:3] E8 | 
[V:4] A,,8 | 
[V:1] F2F2F2F2 | 
[V:2] d3cB2A2 | 
[V:3] D8 | 
[V:4] z2D,2D,2D,2 | 
[V:1] G2G2d2d2 | 
[V:2] G4B4 | 
[V:3] B8 | 
[V:4] B,,2G,,4G,,2 | 
[V:1] c2BAG2c2 | 
[V:2] A2GFE4 | 
[V:3] c4c4 | 
[V:4] A,,2B,,2C,2A,,2 | 
[V:1] B2AGF2d2 | 
[V:2] D8 | 
[V:3] d8 | 
[V:4] B,,2C,2D,2B,,2 | 
[V:1] c2BAG4 | 
[V:2] z8 | 
[V:3] _e8 | 
[V:4] C,2D,2_E,2C,2 | 
[V:1] F8 | 
[V:2] z8 | 
[V:3] d4f4- | 
[V:4] D,4D,4 | 
[V:1] z8 | 
[V:2] d2d2d2f2- | 
[V:3] f4B4 | 
[V:4] z8 | 
[V:1] z8 | 
[V:2] f2d2c4 | 
[V:3] A8 | 
[V:4] F,4F,4 | 
[V:1] z8 | 
[V:2] z2B2B2B2 | 
[V:3] B8 | 
[V:4] G,4G,4 | 
[V:1] z8 | 
[V:2] c2A2B4 | 
[V:3] f4e4 | 
[V:4] F,2F,2G,4 | 
[V:1] z4G4 | 
[V:2] c4B4 | 
[V:3] f4d4- | 
[V:4] F,4G,4 | 
[V:1] A4B4 | 
[V:2] z4B4 | 
[V:3] d4e4 | 
[V:4] F,4G,4 | 
[V:1] A2d3cB2- | 
[V:2] c2f2d2e2 | 
[V:3] f4B4 | 
[V:4] F,4G,4 | 
[V:1] B2AGA4 | 
[V:2] f6f2 | 
[V:3] c8 | 
[V:4] F,4F,4 | 
[V:1] D2D2D2C2 | 
[V:2] f4z4 | 
[V:3] B6A2 | 
[V:4] B,,4z4 | 
[V:1] B,4A,4 | 
[V:2] z8 | 
[V:3] G4F4 | 
[V:4] z8 | 
[V:1] G,2D2D2D2 | 
[V:2] z8 | 
[V:3] G8 | 
[V:4] z8 | 
[V:1] D2C2B,2A,2 | 
[V:2] F4F4 | 
[V:3] D8 | 
[V:4] z8 | 
[V:1] G,4z4 | 
[V:2] G3AB2c2- | 
[V:3] E8 | 
[V:4] z8 | 
[V:1] z8 | 
[V:2] cBAGA4 | 
[V:3] F8 | 
[V:4] z8 | 
[V:1] D4D2D2 | 
[V:2] G2G2D2D2 | 
[V:3] G8 | 
[V:4] G,,4G,,2G,,2 | 
[V:1] D2D2D2D2 | 
[V:2] G2G2F2F2 | 
[V:3] B4A4 | 
[V:4] G,,2G,,2D,2D,2 | 
[V:1] E2F2G2A2 | 
[V:2] G2A2G2c2 | 
[V:3] c8 | 
[V:4] C,2F,2E,2F,2 | 
[V:1] D2F2G4 | 
[V:2] B4z2G2 | 
[V:3] d4B2c2 | 
[V:4] B,,4_E,4 | 
[V:1] F4E4 | 
[V:2] A2B2c4 | 
[V:3] d3cA2G2- | 
[V:4] D,4C,4 | 
[V:1] D2G4^F2 | 
[V:2] d4d4 | 
[V:3] G2B2A4 | 
[V:4] B,,2G,,2D,4 | 
[V:1] G4z2D2 | 
[V:2] B4z2B2 | 
[V:3] G8- | 
[V:4] G,,4z2G,,2 | 
[V:1] _E4D4 | 
[V:2] c4B4 | 
[V:3] G8- | 
[V:4] C,4G,,4 | 
[V:1] z2C2C4 | 
[V:2] z2_E2_E4 | 
[V:3] G8- | 
[V:4] z2C,2C,4 | 
[V:1] B,4z4 | 
[V:2] D4z4 | 
[V:3] G8- | 
[V:4] G,,4z4 | 
[V:1] C4C2C2- | 
[V:2] _E2_E2_E2_E2 | 
[V:3] G8- | 
[V:4] C,4C,2C,2- | 
[V:1] C2C2C2C2 | 
[V:2] _E2_E2_E4- | 
[V:3] G8- | 
[V:4] C,2C,2C,2C,2 | 
[V:1] C2C2C4 | 
[V:2] E2C2_E4 | 
[V:3] G8- | 
[V:4] C,2C,2C,4 | 
[V:1] D2D2D2B,2 | 
[V:2] D4z2D2 | 
[V:3] G8- | 
[V:4] G,,4z2G,,2 | 
[V:1] C2D2B,2C2 | 
[V:2] _E2D2G2_E2 | 
[V:3] G8- | 
[V:4] C,2B,,2G,,2C,2 | 
[V:1] D2B,2C2D2 | 
[V:2] D2G2_E2D2 | 
[V:3] G8- | 
[V:4] B,,2G,,2C,2B,,2 | 
[V:1] B,2C2_E4 | 
[V:2] G2C2c2c2 | 
[V:3] G8- | 
[V:4] G,,2C,2C,2C,2 | 
[V:1] D8 ||  
[V:2] B8 ||  
[V:3] G8 ||  
[V:4] G,,8 ||  
[V:1]  [K:F] [M:2/1]z8 | 
[V:2]  [K:F] [M:2/1]d4B2c2 | 
[V:3]  [K:F] [M:2/1]G6E2 | 
[V:4]  [K:F] [M:2/1]z8 | 
[V:1] z8 | 
[V:2] A4G2d2- | 
[V:3] F4G4 | 
[V:4] z8 | 
[V:1] z4B4 | 
[V:2] dcB4AG | 
[V:3] B8 | 
[V:4] z4G,4 | 
[V:1] A2A2G4 | 
[V:2] F4G4 | 
[V:3] c8 | 
[V:4] A,2F,2E,4 | 
[V:1] F2F2B2A2- | 
[V:2] A4z4 | 
[V:3] d6c2 | 
[V:4] D,4z4 | 
[V:1] AGG4^F2 | 
[V:2] z8 | 
[V:3] B4A4 | 
[V:4] z8 | 
[V:1] G8 | 
[V:2] z8 | 
[V:3] G6FE | 
[V:4] z2B,2B,2B,2 | 
[V:1] z8 | 
[V:2] z2d2d2d2 | 
[V:3] D8 | 
[V:4] B,2B,2A,4 | 
[V:1] z8 | 
[V:2] d2d2e2f2 | 
[V:3] B4A4 | 
[V:4] G,4z4 | 
[V:1] z2D2D2D2 | 
[V:2] g2G2B2B2 | 
[V:3] B4G4 | 
[V:4] z2G,,2G,,2G,,2 | 
[V:1] D2D2D2D2 | 
[V:2] B2B2A2A2 | 
[V:3] F2F4EF | 
[V:4] D,2D,2D,2D,2 | 
[V:1] D2D2C2C2 | 
[V:2] G2G2E2F2 | 
[V:3] G4C4- | 
[V:4] G,,2G,,2A,,2A,,2 | 
[V:1] A,2A,2B,2B,2 | 
[V:2] F2C2D2D2 | 
[V:3] C4G4 | 
[V:4] F,,2A,,2G,,2G,,2 | 
[V:1] C2B,2G,2A,2- | 
[V:2] C2D2E2E2 | 
[V:3] F2G4FE | 
[V:4] A,,2B,,2C,4 | 
[V:1] A,2G,2C4 | 
[V:2] D2G4^F2 | 
[V:3] F2D2C4 | 
[V:4] D,2B,,2A,,4 | 
[V:1] B,2B,2B,2B,2 | 
[V:2] G4z4 | 
[V:3] G8 | 
[V:4] G,,8 | 
[V:1] A,2D3EF2 | 
[V:2] z8 | 
[V:3] D4F4 | 
[V:4] D,8 | 
[V:1] GFED^C3=B, | 
[V:2] z8 | 
[V:3] E8 | 
[V:4] z8 | 
[V:1] D8- | 
[V:2] F2F2F2F2 | 
[V:3] D8 | 
[V:4] z2A,2A,2A,2 | 
[V:1] D8 | 
[V:2] G2B4G2 | 
[V:3] B8 | 
[V:4] B,2G,4B,2 | 
[V:1] z8 | 
[V:2] F4G4 | 
[V:3] c4c4 | 
[V:4] A,2F,2E,4 | 
[V:1] z2F2F2F2 | 
[V:2] A8 | 
[V:3] d8 | 
[V:4] D,8 | 
[V:1] GF_EDC3B, | 
[V:2] z8 | 
[V:3] _e8 | 
[V:4] z8 | 
[V:1] D2D2D2D2 | 
[V:2] z2B2B2B2 | 
[V:3] d4f4- | 
[V:4] z2B,,2B,,2B,,2 | 
[V:1] D2D2D2D2 | 
[V:2] F2F2F2G2 | 
[V:3] f4B4 | 
[V:4] B,,2B,,2B,,2B,,2 | 
[V:1] C2D2E4 | 
[V:2] A2F4E2 | 
[V:3] A8 | 
[V:4] F,2D,2C,4 | 
[V:1] D4z4 | 
[V:2] F2F2G2G2 | 
[V:3] B8 | 
[V:4] B,,2B,,2_E,2E,2 | 
[V:1] z8 | 
[V:2] F2B2G2A2 | 
[V:3] f4e4 | 
[V:4] D,2B,,2C,2C,2 | 
[V:1] F2F2F2F2 | 
[V:2] D4z4 | 
[V:3] f4d4- | 
[V:4] B,,8 | 
[V:1] F2F2G2G2 | 
[V:2] z8 | 
[V:3] d4e4 | 
[V:4] z8 | 
[V:1] F2F2G2B2- | 
[V:2] z8 | 
[V:3] f4B4 | 
[V:4] z8 | 
[V:1] B2AGA4 | 
[V:2] z2F2F2F2 | 
[V:3] c8 | 
[V:4] F,2F,2F,2F,2 | 
[V:1] z8 | 
[V:2] F2G2F2E2- | 
[V:3] B6A2 | 
[V:4] B,,2_E,2D,2C,2- | 
[V:1] G2G2c2c2 | 
[V:2] EDD4C2 | 
[V:3] G4^F4 | 
[V:4] C,2B,,2A,,4 | 
[V:1] B2B2B2B2 | 
[V:2] D4z2d2 | 
[V:3] G8 | 
[V:4] G,,4z4 | 
[V:1] A4z4 | 
[V:2] d3cB2A2 | 
[V:3] D8 | 
[V:4] z2F,2F,2F,2 | 
[V:1] z2G2G2G2 | 
[V:2] G3AB2c2 | 
[V:3] E8 | 
[V:4] G,4z4 | 
[V:1] A2A2A2A2 | 
[V:2] A4z4 | 
[V:3] F8 | 
[V:4] z8 | 
[V:1] B3AG4 | 
[V:2] z8 | 
[V:3] G8 | 
[V:4] z2G,2G,2G,2 | 
[V:1] z4z2A2 | 
[V:2] z8 | 
[V:3] B4A4 | 
[V:4] G,2G,2F,2A,2- | 
[V:1] A4G4 | 
[V:2] F4G2G2 | 
[V:3] c8 | 
[V:4] A,2F,2E,4 | 
[V:1] F4G2E2 | 
[V:2] A4z4 | 
[V:3] d4B2c2 | 
[V:4] D,4z4 | 
[V:1] F2G2A2D2 | 
[V:2] z8 | 
[V:3] d3cA2G2 | 
[V:4] z8 | 
[V:1] E2G4^F2 | 
[V:2] z8 | 
[V:3] G2B2A4 | 
[V:4] z8 | 
[V:1] G4z2D2 | 
[V:2] z2d2_e2d2 | 
[V:3] G8- | 
[V:4] z4z2G,,2 | 
[V:1] _E2D2C2B,2 | 
[V:2] c2B2_e2d2 | 
[V:3] G8- | 
[V:4] C,2G,,2C,2G,,2 | 
[V:1] _E2D2C2B,2 | 
[V:2] c2B2_e2d2 | 
[V:3] G8- | 
[V:4] C,2G,,2C,2G,,2 | 
[V:1] _E6DC | 
[V:2] c2G2c4 | 
[V:3] G8- | 
[V:4] C,8 | 
[V:1] D8 |]  
[V:2] B8 |]  
[V:3] G8 |]  
[V:4] G,,8 |]  



